X:437
T:Mr's Murray of Abercanny's Strathspey. RH.438
R:strathspey
S:Rev.R.Harrison's MS,c1815,Cumbria
O:England
A:Temple Sowerby,Cumbria
Z:vmp.Simon Wilson. Review PJH, 2008.
M:C
L:1/8
Q:2/4=70
K:G
D/D/D F2A<DF<D|E<cB<c E<DE2|\
D/D/D F2A<DF<D|D<dF<d F<DF2:|!
d/d/d f>d g>d f>d|c/c/c e>c g>ce2|\
d/d/d f>d a<df<d|A<dF<d F>DF2|!
d/d/d f>d g<df<d|c/c/c e<c g<ce2|\
d>fe>g f>ge>g|f>de>c d>AF2|]

